assets/img/torus-login/twitter-color.svg

<svg xmlns="http://www.w3.org/2000/svg" viewBox="0 0 39 32" fill="currentColor"><path d="M38.4 3.7888C36.9662 4.44131 35.4407 4.86977 33.8768 5.0592C35.5329 4.0371 36.7632 2.45039 37.3408 0.592C35.7985 1.53055 34.1043 2.19275 32.3344 2.5488C31.6067 1.74677 30.7194 1.10573 29.7294 0.666797C28.7394 0.227866 27.6685 0.000742161 26.5856 0C22.2368 0 18.7104 3.616 18.7104 8.0784C18.7104 8.712 18.7776 9.3264 18.912 9.9184C12.3648 9.5808 6.56 6.3664 2.672 1.4752C1.97093 2.71476 1.60374 4.11512 1.6064 5.5392C1.6064 8.3408 2.9984 10.8144 5.1104 12.264C3.85693 12.2223 2.63242 11.8763 1.5424 11.256V11.3552C1.5424 15.2704 4.2576 18.536 7.8624 19.2752C7.18788 19.4664 6.4899 19.5623 5.7888 19.56C5.2816 19.56 4.7856 19.512 4.3056 19.416C5.3072 22.6256 8.216 24.9616 11.664 25.024C10.0434 26.3353 8.17576 27.3075 6.17203 27.8827C4.16831 28.458 2.0694 28.6247 0 28.3728C3.58384 30.7378 7.78296 31.999 12.0768 32C26.5696 32 34.4928 19.6928 34.4928 9.016C34.4928 8.664 34.4848 8.3136 34.472 7.9696C36.0112 6.8304 37.3472 5.4096 38.4 3.7888Z" fill="#1DA1F2"/></svg>

<svg xmlns="http://www.w3.org/2000/svg" viewBox="0 0 39 32" fill="currentColor"><path d="M38.4 3.789a15.387 15.387 0 0 1-4.523 1.27A8.06 8.06 0 0 0 37.34.592a15.517 15.517 0 0 1-5.007 1.957A7.77 7.77 0 0 0 26.586 0c-4.35 0-7.876 3.616-7.876 8.078 0 .634.068 1.248.202 1.84-6.547-.337-12.352-3.552-16.24-8.443A8.224 8.224 0 0 0 1.606 5.54a8.14 8.14 0 0 0 3.504 6.725 7.734 7.734 0 0 1-3.568-1.008v.1c0 3.914 2.716 7.18 6.32 7.92a7.513 7.513 0 0 1-2.073.284 7.557 7.557 0 0 1-1.483-.144c1.001 3.21 3.91 5.546 7.358 5.608A15.554 15.554 0 0 1 0 28.373 21.936 21.936 0 0 0 12.077 32C26.57 32 34.493 19.693 34.493 9.016c0-.352-.008-.702-.021-1.046A16.16 16.16 0 0 0 38.4 3.789Z" fill="#1DA1F2"/></svg>
